Sweet-Rainbow/icons/libreoffice-base.svg

<?xml version="1.0" encoding="UTF-8" standalone="no"?>
<!-- Generator: Gravit.io -->

<svg
   xmlns:dc="http://purl.org/dc/elements/1.1/"
   xmlns:cc="http://creativecommons.org/ns#"
   xmlns:rdf="http://www.w3.org/1999/02/22-rdf-syntax-ns#"
   xmlns:svg="http://www.w3.org/2000/svg"
   xmlns="http://www.w3.org/2000/svg"
   xmlns:sodipodi="http://sodipodi.sourceforge.net/DTD/sodipodi-0.dtd"
   xmlns:inkscape="http://www.inkscape.org/namespaces/inkscape"
   style="isolation:isolate"
   viewBox="0 0 36 36"
   width="48"
   height="48"
   version="1.1"
   id="svg28"
   sodipodi:docname="libreoffice-base.svg"
   inkscape:version="0.92.4 (5da689c313, 2019-01-14)">
  <metadata
     id="metadata34">
    <rdf:RDF>
      <cc:Work
         rdf:about="">
        <dc:format>image/svg+xml</dc:format>
        <dc:type
           rdf:resource="http://purl.org/dc/dcmitype/StillImage" />
        <dc:title></dc:title>
      </cc:Work>
    </rdf:RDF>
  </metadata>
  <defs
     id="defs32" />
  <sodipodi:namedview
     pagecolor="#ffffff"
     bordercolor="#666666"
     borderopacity="1"
     objecttolerance="10"
     gridtolerance="10"
     guidetolerance="10"
     inkscape:pageopacity="0"
     inkscape:pageshadow="2"
     inkscape:window-width="640"
     inkscape:window-height="480"
     id="namedview30"
     showgrid="false"
     inkscape:zoom="29.365243"
     inkscape:cx="25.325443"
     inkscape:cy="32"
     inkscape:current-layer="svg28"
     units="px" />
  <linearGradient
     id="_lgradient_12"
     x1="0.22078557"
     y1="0.047239967"
     x2="0.9022491"
     y2="0.90614605"
     gradientTransform="matrix(20,0,0,20,25.124,26)"
     gradientUnits="userSpaceOnUse">
    <stop
       offset="2.608695652173913%"
       stop-opacity="1"
       style="stop-color:rgb(237,184,212)"
       id="stop2" />
    <stop
       offset="98.69565217391305%"
       stop-opacity="1"
       style="stop-color:rgb(162,110,245)"
       id="stop4" />
  </linearGradient>
  <linearGradient
     id="_lgradient_13"
     x1="29.261122"
     y1="26.491774"
     x2="43.571712"
     y2="44.528618"
     gradientTransform="scale(0.99998993,1.0000101)"
     gradientUnits="userSpaceOnUse">
    <stop
       offset="2.608695652173913%"
       stop-opacity="1"
       style="stop-color:rgb(237,184,212)"
       id="stop7" />
    <stop
       offset="98.69565217391305%"
       stop-opacity="1"
       style="stop-color:rgb(162,110,245)"
       id="stop9" />
  </linearGradient>
  <linearGradient
     id="_lgradient_14"
     x1="0.22078557"
     y1="0.047239967"
     x2="0.9022491"
     y2="0.90614605"
     gradientTransform="matrix(40,0,0,44,2,2)"
     gradientUnits="userSpaceOnUse">
    <stop
       offset="2.608695652173913%"
       stop-opacity="1"
       style="stop-color:rgb(237,184,212)"
       id="stop14" />
    <stop
       offset="98.69565217391305%"
       stop-opacity="1"
       style="stop-color:rgb(162,110,245)"
       id="stop16" />
  </linearGradient>
  <linearGradient
     id="_lgradient_15"
     x1="-0.22433203"
     y1="-1.4622297"
     x2="1.7579993"
     y2="2.9463928"
     gradientTransform="matrix(21,0,0,9,7.5,16.5)"
     gradientUnits="userSpaceOnUse">
    <stop
       offset="2.608695652173913%"
       stop-opacity="1"
       style="stop-color:rgb(237,184,212)"
       id="stop21" />
    <stop
       offset="98.69565217391305%"
       stop-opacity="1"
       style="stop-color:rgb(162,110,245)"
       id="stop23" />
  </linearGradient>
  <g
     id="g844"
     transform="matrix(0.80898876,0,0,0.80898876,-1.2636404,-1.6179774)">
    <path
       id="path12"
       stroke-miterlimit="3"
       d="m 26.943,35.391 v 0 c -0.038,0.499 -0.475,0.875 -0.977,0.839 v 0 c -0.501,-0.037 -0.877,-0.474 -0.839,-0.975 v 0 c 0.186,-2.514 1.32,-4.869 3.172,-6.587 C 30.151,26.955 32.586,26 35.112,26 c 2.653,0 5.202,1.055 7.081,2.927 1.875,1.878 2.931,4.423 2.931,7.073 0,2.65 -1.056,5.195 -2.931,7.073 C 40.314,44.945 37.765,46 35.112,46 v 0 c -0.503,0 -0.91,-0.407 -0.91,-0.909 v 0 c 0,-0.502 0.407,-0.909 0.91,-0.909 v 0 c 2.171,0 4.255,-0.864 5.793,-2.396 1.534,-1.536 2.399,-3.618 2.399,-5.786 0,-2.168 -0.865,-4.25 -2.399,-5.786 -1.538,-1.532 -3.622,-2.396 -5.793,-2.396 -2.066,0 -4.06,0.777 -5.575,2.182 -1.516,1.405 -2.44,3.332 -2.594,5.391 z m 4.36,7.854 v 0 c 0.444,0.234 0.615,0.784 0.382,1.228 v 0 c -0.234,0.444 -0.784,0.615 -1.229,0.382 v 0 c -1.893,-0.996 -3.422,-2.573 -4.355,-4.496 v 0 c -0.221,-0.451 -0.034,-0.996 0.418,-1.216 v 0 c 0.453,-0.219 0.999,-0.031 1.22,0.421 v 0 c 0.765,1.577 2.012,2.863 3.564,3.681 z m 2.249,-8.054 v -2.994 c 0.319,0.047 0.639,0.102 0.953,0.161 0.388,0.075 0.765,0.181 1.121,0.315 0.21,0.078 0.409,0.176 0.592,0.29 0.105,0.063 0.199,0.138 0.278,0.224 0.063,0.067 0.11,0.142 0.141,0.216 0.037,0.083 0.053,0.173 0.058,0.26 0.005,0.141 -0.016,0.286 -0.058,0.424 -0.031,0.094 -0.078,0.185 -0.146,0.267 -0.068,0.083 -0.152,0.161 -0.252,0.224 -0.141,0.094 -0.304,0.177 -0.476,0.24 -0.079,0.031 -0.163,0.059 -0.247,0.086 -0.104,0.028 -0.209,0.055 -0.314,0.079 -0.33,0.078 -0.671,0.133 -1.016,0.161 -0.21,0.019 -0.425,0.035 -0.634,0.047 z m 0,1.634 c 0.267,0.016 0.534,0.044 0.801,0.079 0.273,0.035 0.545,0.086 0.818,0.149 0.183,0.043 0.361,0.098 0.534,0.165 0.178,0.067 0.34,0.15 0.492,0.248 0.105,0.067 0.194,0.145 0.268,0.232 0.068,0.082 0.12,0.172 0.157,0.267 0.047,0.129 0.073,0.267 0.073,0.4 0,0.138 -0.021,0.275 -0.063,0.409 -0.031,0.094 -0.084,0.181 -0.152,0.263 -0.068,0.087 -0.157,0.161 -0.256,0.228 -0.147,0.098 -0.31,0.181 -0.488,0.244 -0.078,0.031 -0.162,0.059 -0.246,0.086 -0.105,0.032 -0.209,0.059 -0.314,0.083 -0.336,0.078 -0.676,0.133 -1.022,0.169 -0.199,0.019 -0.398,0.035 -0.602,0.047 z m 3.594,-0.793 c 0.146,0.074 0.288,0.157 0.424,0.247 0.262,0.165 0.482,0.362 0.665,0.578 0.184,0.216 0.32,0.448 0.409,0.695 0.094,0.259 0.141,0.527 0.146,0.798 0.006,0.271 -0.041,0.546 -0.13,0.809 -0.084,0.248 -0.215,0.483 -0.393,0.703 -0.184,0.22 -0.404,0.417 -0.66,0.586 -0.283,0.184 -0.592,0.342 -0.928,0.467 -0.136,0.051 -0.272,0.098 -0.414,0.138 -0.151,0.047 -0.303,0.086 -0.461,0.125 -0.45,0.107 -0.911,0.181 -1.383,0.228 -0.633,0.059 -1.273,0.091 -1.912,0.095 -0.277,0 -0.545,-0.083 -0.744,-0.228 -0.199,-0.15 -0.309,-0.35 -0.309,-0.558 v -9.429 c 0,-0.224 0.126,-0.436 0.351,-0.586 0.22,-0.149 0.519,-0.22 0.818,-0.196 0.806,0.071 1.608,0.181 2.399,0.33 0.534,0.102 1.053,0.247 1.551,0.436 0.345,0.13 0.67,0.291 0.969,0.475 0.262,0.157 0.492,0.346 0.681,0.554 0.178,0.193 0.314,0.405 0.408,0.629 0.095,0.224 0.147,0.46 0.157,0.695 0.011,0.279 -0.031,0.558 -0.115,0.825 -0.078,0.256 -0.209,0.495 -0.387,0.715 -0.179,0.224 -0.404,0.425 -0.661,0.594 -0.151,0.102 -0.314,0.192 -0.481,0.275 z"
       style="vector-effect:non-scaling-stroke;fill:url(#_lgradient_12);fill-rule:evenodd;stroke:url(#_lgradient_13);stroke-width:1;stroke-linecap:square;stroke-linejoin:miter;stroke-miterlimit:3"
       inkscape:connector-curvature="0" />
    <path
       id="path19"
       d="M 31,6 V 6 C 29.896,6 29,5.104 29,4 v 0 c 0,-1.104 0.896,-2 2,-2 v 0 h 6 c 2.76,0 5,2.24 5,5 v 6 0 c 0,1.104 -0.896,2 -2,2 v 0 c -1.104,0 -2,-0.896 -2,-2 V 13 9 C 38,7.344 36.656,6 35,6 Z m -9,36 v 0 c 1.104,0 2,0.896 2,2 v 0 c 0,1.104 -0.896,2 -2,2 v 0 H 7 C 4.24,46 2,43.76 2,41 V 7 C 2,4.24 4.24,2 7,2 h 13.77 c 1.656,0 3.925,0.975 5.065,2.176 L 41.34,20.51 v 0 c 0.817,0.74 0.882,2.005 0.145,2.825 v 0 c -0.737,0.82 -2.003,0.889 -2.825,0.155 v 0 L 22.915,6.729 C 22.537,6.327 21.782,6 21.23,6 H 9 C 7.344,6 6,7.344 6,9 v 30 c 0,1.656 1.344,3 3,3 z M 8,36 v 0 l 1.13,1.22 c 1.17,0.83 2.45,1.47 3.81,1.9 1.6,0.46 3.25,0.67 4.9,0.63 1.45,-0.01 2.89,-0.1 4.33,-0.26 v 0 c 0.822,-0.094 1.414,-0.838 1.32,-1.66 v 0 c -0.094,-0.822 -0.838,-1.414 -1.66,-1.32 v 0 0 c -1.34,0.15 -2.68,0.23 -4.03,0.24 -1.35,0.03 -2.69,-0.14 -3.99,-0.5 -1.05,-0.34 -2.04,-0.84 -2.94,-1.47 L 10.5,34.516 v -3.439 c 0.777,0.426 1.593,0.775 2.44,1.043 1.6,0.46 3.25,0.67 4.9,0.63 1.45,-0.01 2.89,-0.1 4.33,-0.26 v 0 c 0.822,-0.094 1.414,-0.838 1.32,-1.66 v 0 c -0.094,-0.822 -0.838,-1.414 -1.66,-1.32 v 0 0 c -1.34,0.15 -2.68,0.23 -4.03,0.24 -1.35,0.03 -2.69,-0.14 -3.99,-0.5 -1.05,-0.34 -2.04,-0.84 -2.94,-1.47 L 10.5,27.516 V 21 h -3 z M 25.5,21 h 3 v 4 c 0,1.104 -0.672,2 -1.5,2 v 0 c -0.828,0 -1.5,-0.896 -1.5,-2 z"
       style="fill:url(#_lgradient_14);fill-rule:evenodd"
       inkscape:connector-curvature="0" />
    <path
       id="path26"
       d="m 7.5,21 c 0,-0.5 0.15,-0.99 0.42,-1.41 0.24,-0.38 0.54,-0.7 0.89,-0.96 0.72,-0.53 1.53,-0.93 2.38,-1.18 1.02,-0.33 2.05,-0.56 3.11,-0.7 1.22,-0.17 2.46,-0.25 3.7,-0.25 1.24,0 2.48,0.08 3.7,0.25 1.06,0.14 2.09,0.37 3.11,0.7 0.85,0.25 1.66,0.65 2.38,1.18 0.35,0.26 0.65,0.58 0.89,0.95 0.27,0.43 0.42,0.92 0.42,1.42 0,0.5 -0.15,0.99 -0.42,1.42 -0.24,0.37 -0.54,0.69 -0.89,0.95 -0.72,0.53 -1.53,0.93 -2.38,1.18 -1.02,0.33 -2.05,0.56 -3.11,0.7 -1.22,0.17 -2.46,0.25 -3.7,0.25 -1.24,0 -2.48,-0.08 -3.7,-0.25 -1.06,-0.14 -2.09,-0.37 -3.11,-0.7 C 10.34,24.3 9.53,23.9 8.81,23.37 8.46,23.11 8.16,22.79 7.92,22.42 7.65,21.99 7.5,21.5 7.5,21 Z m 3.15,0 c 0.44,-0.31 0.92,-0.54 1.43,-0.69 0.85,-0.27 1.73,-0.47 2.62,-0.59 1.09,-0.15 2.2,-0.22 3.3,-0.22 1.1,0 2.21,0.07 3.3,0.22 0.89,0.12 1.77,0.32 2.62,0.59 0.51,0.15 0.99,0.38 1.43,0.69 -0.44,0.31 -0.92,0.54 -1.43,0.69 -0.85,0.27 -1.73,0.47 -2.62,0.59 -1.09,0.15 -2.2,0.22 -3.3,0.22 -1.1,0 -2.21,-0.07 -3.3,-0.22 C 13.81,22.16 12.93,21.96 12.08,21.69 11.57,21.54 11.09,21.31 10.65,21 Z"
       style="fill:url(#_lgradient_15);fill-rule:evenodd"
       inkscape:connector-curvature="0" />
  </g>
</svg>

<?xml version="1.0" encoding="UTF-8" standalone="no"?><!-- Generator: Gravit.io --><svg xmlns="http://www.w3.org/2000/svg" xmlns:xlink="http://www.w3.org/1999/xlink" style="isolation:isolate" viewBox="0 0 48 48" width="48pt" height="48pt"><linearGradient id="_lgradient_12" x1="0.22078557924020603" y1="0.04723996636961164" x2="0.9022490870014594" y2="0.9061460265379022" gradientTransform="matrix(20,0,0,20,25.124,26)" gradientUnits="userSpaceOnUse"><stop offset="2.608695652173913%" stop-opacity="1" style="stop-color:rgb(237,184,212)"/><stop offset="98.69565217391305%" stop-opacity="1" style="stop-color:rgb(162,110,245)"/></linearGradient><linearGradient id="_lgradient_13" x1="0.22078557924020603" y1="0.04723996636961164" x2="0.9022490870014594" y2="0.9061460265379022"><stop offset="2.608695652173913%" stop-opacity="1" style="stop-color:rgb(237,184,212)"/><stop offset="98.69565217391305%" stop-opacity="1" style="stop-color:rgb(162,110,245)"/></linearGradient><path d=" M 26.943 35.391 L 26.943 35.391 C 26.905 35.89 26.468 36.266 25.966 36.23 L 25.966 36.23 C 25.465 36.193 25.089 35.756 25.127 35.255 L 25.127 35.255 C 25.313 32.741 26.447 30.386 28.299 28.668 C 30.151 26.955 32.586 26 35.112 26 C 37.765 26 40.314 27.055 42.193 28.927 C 44.068 30.805 45.124 33.35 45.124 36 C 45.124 38.65 44.068 41.195 42.193 43.073 C 40.314 44.945 37.765 46 35.112 46 L 35.112 46 C 34.609 46 34.202 45.593 34.202 45.091 L 34.202 45.091 C 34.202 44.589 34.609 44.182 35.112 44.182 L 35.112 44.182 C 37.283 44.182 39.367 43.318 40.905 41.786 C 42.439 40.25 43.304 38.168 43.304 36 C 43.304 33.832 42.439 31.75 40.905 30.214 C 39.367 28.682 37.283 27.818 35.112 27.818 C 33.046 27.818 31.052 28.595 29.537 30 C 28.021 31.405 27.097 33.332 26.943 35.391 L 26.943 35.391 Z  M 31.303 43.245 L 31.303 43.245 C 31.747 43.479 31.918 44.029 31.685 44.473 L 31.685 44.473 C 31.451 44.917 30.901 45.088 30.456 44.855 L 30.456 44.855 C 28.563 43.859 27.034 42.282 26.101 40.359 L 26.101 40.359 C 25.88 39.908 26.067 39.363 26.519 39.143 L 26.519 39.143 C 26.972 38.924 27.518 39.112 27.739 39.564 L 27.739 39.564 C 28.504 41.141 29.751 42.427 31.303 43.245 L 31.303 43.245 Z  M 33.552 35.191 L 33.552 32.197 C 33.871 32.244 34.191 32.299 34.505 32.358 C 34.893 32.433 35.27 32.539 35.626 32.673 C 35.836 32.751 36.035 32.849 36.218 32.963 C 36.323 33.026 36.417 33.101 36.496 33.187 C 36.559 33.254 36.606 33.329 36.637 33.403 C 36.674 33.486 36.69 33.576 36.695 33.663 C 36.7 33.804 36.679 33.949 36.637 34.087 C 36.606 34.181 36.559 34.272 36.491 34.354 C 36.423 34.437 36.339 34.515 36.239 34.578 C 36.098 34.672 35.935 34.755 35.763 34.818 C 35.684 34.849 35.6 34.877 35.516 34.904 C 35.412 34.932 35.307 34.959 35.202 34.983 C 34.872 35.061 34.531 35.116 34.186 35.144 C 33.976 35.163 33.761 35.179 33.552 35.191 L 33.552 35.191 Z  M 33.552 36.825 C 33.819 36.841 34.086 36.869 34.353 36.904 C 34.626 36.939 34.898 36.99 35.171 37.053 C 35.354 37.096 35.532 37.151 35.705 37.218 C 35.883 37.285 36.045 37.368 36.197 37.466 C 36.302 37.533 36.391 37.611 36.465 37.698 C 36.533 37.78 36.585 37.87 36.622 37.965 C 36.669 38.094 36.695 38.232 36.695 38.365 C 36.695 38.503 36.674 38.64 36.632 38.774 C 36.601 38.868 36.548 38.955 36.48 39.037 C 36.412 39.124 36.323 39.198 36.224 39.265 C 36.077 39.363 35.914 39.446 35.736 39.509 C 35.658 39.54 35.574 39.568 35.49 39.595 C 35.385 39.627 35.281 39.654 35.176 39.678 C 34.84 39.756 34.5 39.811 34.154 39.847 C 33.955 39.866 33.756 39.882 33.552 39.894 L 33.552 36.825 L 33.552 36.825 Z  M 37.146 36.032 C 37.292 36.106 37.434 36.189 37.57 36.279 C 37.832 36.444 38.052 36.641 38.235 36.857 C 38.419 37.073 38.555 37.305 38.644 37.552 C 38.738 37.811 38.785 38.079 38.79 38.35 C 38.796 38.621 38.749 38.896 38.66 39.159 C 38.576 39.407 38.445 39.642 38.267 39.862 C 38.083 40.082 37.863 40.279 37.607 40.448 C 37.324 40.632 37.015 40.79 36.679 40.915 C 36.543 40.966 36.407 41.013 36.265 41.053 C 36.114 41.1 35.962 41.139 35.804 41.178 C 35.354 41.285 34.893 41.359 34.421 41.406 C 33.788 41.465 33.148 41.497 32.509 41.501 C 32.232 41.501 31.964 41.418 31.765 41.273 C 31.566 41.123 31.456 40.923 31.456 40.715 L 31.456 31.286 C 31.456 31.062 31.582 30.85 31.807 30.7 C 32.027 30.551 32.326 30.48 32.625 30.504 C 33.431 30.575 34.233 30.685 35.024 30.834 C 35.558 30.936 36.077 31.081 36.575 31.27 C 36.92 31.4 37.245 31.561 37.544 31.745 C 37.806 31.902 38.036 32.091 38.225 32.299 C 38.403 32.492 38.539 32.704 38.633 32.928 C 38.728 33.152 38.78 33.388 38.79 33.623 C 38.801 33.902 38.759 34.181 38.675 34.448 C 38.597 34.704 38.466 34.943 38.288 35.163 C 38.109 35.387 37.884 35.588 37.627 35.757 C 37.476 35.859 37.313 35.949 37.146 36.032 L 37.146 36.032 Z " fill-rule="evenodd" fill="url(#_lgradient_12)" vector-effect="non-scaling-stroke" stroke-width="1" stroke="url(#_lgradient_13)" stroke-linejoin="miter" stroke-linecap="square" stroke-miterlimit="3"/><linearGradient id="_lgradient_14" x1="0.22078557924020603" y1="0.04723996636961164" x2="0.9022490870014594" y2="0.9061460265379022" gradientTransform="matrix(40,0,0,44,2,2)" gradientUnits="userSpaceOnUse"><stop offset="2.608695652173913%" stop-opacity="1" style="stop-color:rgb(237,184,212)"/><stop offset="98.69565217391305%" stop-opacity="1" style="stop-color:rgb(162,110,245)"/></linearGradient><path d=" M 31 6 L 31 6 C 29.896 6 29 5.104 29 4 L 29 4 C 29 2.896 29.896 2 31 2 L 31 2 L 37 2 C 39.76 2 42 4.24 42 7 L 42 13 L 42 13 C 42 14.104 41.104 15 40 15 L 40 15 C 38.896 15 38 14.104 38 13 L 38 13 L 38 9 C 38 7.344 36.656 6 35 6 L 31 6 L 31 6 Z  M 22 42 L 22 42 C 23.104 42 24 42.896 24 44 L 24 44 C 24 45.104 23.104 46 22 46 L 22 46 L 7 46 C 4.24 46 2 43.76 2 41 L 2 7 C 2 4.24 4.24 2 7 2 L 20.77 2 C 22.426 2 24.695 2.975 25.835 4.176 L 41.34 20.51 L 41.34 20.51 C 42.157 21.25 42.222 22.515 41.485 23.335 L 41.485 23.335 C 40.748 24.155 39.482 24.224 38.66 23.49 L 38.66 23.49 L 22.915 6.729 C 22.537 6.327 21.782 6 21.23 6 L 9 6 C 7.344 6 6 7.344 6 9 L 6 39 C 6 40.656 7.344 42 9 42 L 22 42 L 22 42 Z  M 8 36 L 8 36 L 9.13 37.22 C 10.3 38.05 11.58 38.69 12.94 39.12 C 14.54 39.58 16.19 39.79 17.84 39.75 C 19.29 39.74 20.73 39.65 22.17 39.49 L 22.17 39.49 C 22.992 39.396 23.584 38.652 23.49 37.83 L 23.49 37.83 C 23.396 37.008 22.652 36.416 21.83 36.51 L 21.83 36.51 L 21.83 36.51 C 20.49 36.66 19.15 36.74 17.8 36.75 C 16.45 36.78 15.11 36.61 13.81 36.25 C 12.76 35.91 11.77 35.41 10.87 34.78 L 10.5 34.516 L 10.5 31.077 C 11.277 31.503 12.093 31.852 12.94 32.12 C 14.54 32.58 16.19 32.79 17.84 32.75 C 19.29 32.74 20.73 32.65 22.17 32.49 L 22.17 32.49 C 22.992 32.396 23.584 31.652 23.49 30.83 L 23.49 30.83 C 23.396 30.008 22.652 29.416 21.83 29.51 L 21.83 29.51 L 21.83 29.51 C 20.49 29.66 19.15 29.74 17.8 29.75 C 16.45 29.78 15.11 29.61 13.81 29.25 C 12.76 28.91 11.77 28.41 10.87 27.78 L 10.5 27.516 L 10.5 21 L 7.5 21 L 8 36 L 8 36 L 8 36 Z  M 25.5 21 L 28.5 21 L 28.5 25 C 28.5 26.104 27.828 27 27 27 L 27 27 C 26.172 27 25.5 26.104 25.5 25 L 25.5 21 L 25.5 21 Z " fill-rule="evenodd" fill="url(#_lgradient_14)"/><linearGradient id="_lgradient_15" x1="-0.22433204050851102" y1="-1.4622297637003518" x2="1.757999353587588" y2="2.9463926596279544" gradientTransform="matrix(21,0,0,9,7.5,16.5)" gradientUnits="userSpaceOnUse"><stop offset="2.608695652173913%" stop-opacity="1" style="stop-color:rgb(237,184,212)"/><stop offset="98.69565217391305%" stop-opacity="1" style="stop-color:rgb(162,110,245)"/></linearGradient><path d=" M 7.5 21 C 7.5 20.5 7.65 20.01 7.92 19.59 C 8.16 19.21 8.46 18.89 8.81 18.63 C 9.53 18.1 10.34 17.7 11.19 17.45 C 12.21 17.12 13.24 16.89 14.3 16.75 C 15.52 16.58 16.76 16.5 18 16.5 C 19.24 16.5 20.48 16.58 21.7 16.75 C 22.76 16.89 23.79 17.12 24.81 17.45 C 25.66 17.7 26.47 18.1 27.19 18.63 C 27.54 18.89 27.84 19.21 28.08 19.58 C 28.35 20.01 28.5 20.5 28.5 21 C 28.5 21.5 28.35 21.99 28.08 22.42 C 27.84 22.79 27.54 23.11 27.19 23.37 C 26.47 23.9 25.66 24.3 24.81 24.55 C 23.79 24.88 22.76 25.11 21.7 25.25 C 20.48 25.42 19.24 25.5 18 25.5 C 16.76 25.5 15.52 25.42 14.3 25.25 C 13.24 25.11 12.21 24.88 11.19 24.55 C 10.34 24.3 9.53 23.9 8.81 23.37 C 8.46 23.11 8.16 22.79 7.92 22.42 C 7.65 21.99 7.5 21.5 7.5 21 Z  M 10.65 21 C 11.09 20.69 11.57 20.46 12.08 20.31 C 12.93 20.04 13.81 19.84 14.7 19.72 C 15.79 19.57 16.9 19.5 18 19.5 C 19.1 19.5 20.21 19.57 21.3 19.72 C 22.19 19.84 23.07 20.04 23.92 20.31 C 24.43 20.46 24.91 20.69 25.35 21 C 24.91 21.31 24.43 21.54 23.92 21.69 C 23.07 21.96 22.19 22.16 21.3 22.28 C 20.21 22.43 19.1 22.5 18 22.5 C 16.9 22.5 15.79 22.43 14.7 22.28 C 13.81 22.16 12.93 21.96 12.08 21.69 C 11.57 21.54 11.09 21.31 10.65 21 Z " fill-rule="evenodd" fill="url(#_lgradient_15)"/></svg>
